assets/img/braze_icons/align-left-02.svg

<svg fill="none" height="24" viewBox="0 0 24 24" width="24" xmlns="http://www.w3.org/2000/svg"><g clip-rule="evenodd" fill="#801ed7" fill-rule="evenodd"><path d="m18 7.03198v-.06396c0-.43865 0-.81714-.0213-1.1304-.0226-.32983-.0721-.65974-.2071-.98567-.3044-.73508-.8885-1.31911-1.6235-1.62359-.326-.135-.6559-.18451-.9857-.20701-.3133-.02137-.6918-.02136-1.1304-.02135h-8.06399c-.43865-.00001-.81713-.00002-1.13039.02135-.32983.0225-.65974.07201-.98567.20701-.73508.30448-1.3191.88851-1.62359 1.62359-.135.32593-.1845.65584-.20701.98567-.02137.31326-.02136.69174-.02135 1.13039v.06398c-.00001.43865-.00002.81714.02135 1.13039.02251.32983.07201.65974.20701.98567.30449.73509.88851 1.31915 1.62359 1.62355.32593.135.65584.1845.98567.2071.31326.0213.69175.0213 1.1304.0213h8.06398c.4386 0 .8171 0 1.1304-.0213.3298-.0226.6597-.0721.9857-.2071.735-.3044 1.3191-.88847 1.6235-1.62355.135-.32593.1845-.65584.2071-.98567.0213-.31326.0213-.69174.0213-1.1304z"/><path d="m22 17.032v-.064c0-.4386 0-.8171-.0213-1.1304-.0226-.3298-.0721-.6597-.2071-.9856-.3044-.7351-.8885-1.3192-1.6235-1.6236-.326-.135-.6559-.1845-.9857-.2071-.3133-.0213-.6918-.0213-1.1304-.0213h-12.06399c-.43865 0-.81713 0-1.13039.0214-.32983.0225-.65974.072-.98567.207-.73508.3044-1.31911.8885-1.62359 1.6236-.135.3259-.18451.6558-.20701.9856-.02137.3133-.02136.6918-.02135 1.1304v.064c-.00001.4386-.00002.8171.02135 1.1304.0225.3298.07201.6597.20701.9857.30448.735.88851 1.3191 1.62359 1.6235.32593.135.65584.1845.98567.2071.31326.0213.69175.0213 1.1304.0213h12.06398c.4386 0 .8171 0 1.1304-.0213.3298-.0226.6597-.0721.9857-.2071.735-.3044 1.3191-.8885 1.6235-1.6235.135-.326.1845-.6559.2071-.9857.0213-.3133.0213-.6918.0213-1.1304z"/></g></svg>

<svg width="24" height="24" viewBox="0 0 24 24" fill="none" xmlns="http://www.w3.org/2000/svg">
<path fill-rule="evenodd" clip-rule="evenodd" d="M18 7.03198V6.96802C18 6.52937 18 6.15088 17.9787 5.83762C17.9561 5.50779 17.9066 5.17788 17.7716 4.85195C17.4672 4.11687 16.8831 3.53284 16.1481 3.22836C15.8221 3.09336 15.4922 3.04385 15.1624 3.02135C14.8491 2.99998 14.4706 2.99999 14.032 3L5.96801 3C5.52936 2.99999 5.15088 2.99998 4.83762 3.02135C4.50779 3.04385 4.17788 3.09336 3.85195 3.22836C3.11687 3.53284 2.53285 4.11687 2.22836 4.85195C2.09336 5.17788 2.04386 5.50779 2.02135 5.83762C1.99998 6.15088 1.99999 6.52936 2 6.96801L2 7.03199C1.99999 7.47064 1.99998 7.84913 2.02135 8.16238C2.04386 8.49221 2.09336 8.82212 2.22836 9.14805C2.53285 9.88314 3.11687 10.4672 3.85195 10.7716C4.17788 10.9066 4.50779 10.9561 4.83762 10.9787C5.15088 11 5.52937 11 5.96802 11H14.032C14.4706 11 14.8491 11 15.1624 10.9787C15.4922 10.9561 15.8221 10.9066 16.1481 10.7716C16.8831 10.4672 17.4672 9.88313 17.7716 9.14805C17.9066 8.82212 17.9561 8.49221 17.9787 8.16238C18 7.84912 18 7.47064 18 7.03198Z" fill="#801ED7"/>
<path fill-rule="evenodd" clip-rule="evenodd" d="M22 17.032V16.968C22 16.5294 22 16.1509 21.9787 15.8376C21.9561 15.5078 21.9066 15.1779 21.7716 14.852C21.4672 14.1169 20.8831 13.5328 20.1481 13.2284C19.8221 13.0934 19.4922 13.0439 19.1624 13.0213C18.8491 13 18.4706 13 18.032 13L5.96801 13C5.52936 13 5.15088 13 4.83762 13.0214C4.50779 13.0439 4.17788 13.0934 3.85195 13.2284C3.11687 13.5328 2.53284 14.1169 2.22836 14.852C2.09336 15.1779 2.04385 15.5078 2.02135 15.8376C1.99998 16.1509 1.99999 16.5294 2 16.968L2 17.032C1.99999 17.4706 1.99998 17.8491 2.02135 18.1624C2.04385 18.4922 2.09336 18.8221 2.22836 19.1481C2.53284 19.8831 3.11687 20.4672 3.85195 20.7716C4.17788 20.9066 4.50779 20.9561 4.83762 20.9787C5.15088 21 5.52937 21 5.96802 21H18.032C18.4706 21 18.8491 21 19.1624 20.9787C19.4922 20.9561 19.8221 20.9066 20.1481 20.7716C20.8831 20.4672 21.4672 19.8831 21.7716 19.1481C21.9066 18.8221 21.9561 18.4922 21.9787 18.1624C22 17.8491 22 17.4706 22 17.032Z" fill="#801ED7"/>
</svg>
